X: 1984
T: Wild Paddy
B: australian traditional tunes wiki
M:3/4
L:1/8
R: Waltz
Q: 1/4=100
K:G
V:1 
(3DEF|"G"G4B2|B3 ABc|"D"d4c2|A4A2|F2A2A2|A2B2c2|e4dB|"G"G6|
G2B2d2|"G"d2g2"C"f2|f4ec|A2B2c2|e2"G"d2B2|"D"d2c2A2|"G"G3GG2|G4Bc||
"G"d4d2|d2g2B2|"D"A3AA2|A4AB|c2B2c2|e4dB|"G"G3GG2|G4Bc|
"D"d2^c2d2|b4a2|"C"g4ga|g2f2e2|"D"d2^c2d2|e4dB|"G"G3GG2|G4z2||
% abcbook-tune_id 6342d5be94413793e358e38b


% abcbook-boost 0
% abcbook-tablature 
% abcbook-transpose 
% abcbook-lastupdated 1665324492426
% abcbook-soundfonts 
% abcbook-repeats 1
% NFF Book 2006

